Obsidian-SemiLight/actions/24s/office-chart-polar.svg

<svg viewBox="0 0 24 24" xmlns="http://www.w3.org/2000/svg"><path d="m12.5 3c-.277005 0-.5.2229948-.5.5s.222995.5.5.5.5-.2229948.5-.5-.222995-.5-.5-.5zm-7 1c-.2770052 0-.5.2229948-.5.5s.2229948.5.5.5.5-.2229948.5-.5-.2229948-.5-.5-.5zm14 0c-.277005 0-.5.2229948-.5.5s.222995.5.5.5.5-.2229948.5-.5-.222995-.5-.5-.5zm-7 1c-.277005 0-.5.2229948-.5.5s.222995.5.5.5.5-.2229948.5-.5-.222995-.5-.5-.5zm-5 1c-.2770052 0-.5.2229948-.5.5s.2229948.5.5.5.5-.2229948.5-.5-.2229948-.5-.5-.5zm4.5 0c-1.901441 0-3.5877931.8783098-4.6855469 2.25l3.1289059 2.503906c.365933-.45681.923165-.753906 1.556641-.753906v-.5-2zm0 1.5c0 .2770052.222995.5.5.5s.5-.2229948.5-.5-.222995-.5-.5-.5-.5.2229948-.5.5zm0 2c0 .2770052.222995.5.5.5s.5-.2229948.5-.5-.222995-.5-.5-.5-.5.2229948-.5.5zm3.708984-3.4355469-2.65039 4.2421879c.519459.324855.870291.881266.923828 1.527343l4.988281-.416015c-.185557-2.2658024-1.439663-4.2157333-3.261719-5.3535159zm-11.208984 4.9355469c-.2770052 0-.5.222995-.5.5s.2229948.5.5.5.5-.222995.5-.5-.2229948-.5-.5-.5zm2 0c-.2770052 0-.5.222995-.5.5s.2229948.5.5.5.5-.222995.5-.5-.2229948-.5-.5-.5zm2 0c-.2770052 0-.5.222995-.5.5s.2229948.5.5.5.5-.222995.5-.5-.2229948-.5-.5-.5zm2 0c-.277005 0-.5.222995-.5.5s.222995.5.5.5.5-.222995.5-.5-.222995-.5-.5-.5zm2 0c-.277005 0-.5.222995-.5.5s.222995.5.5.5.5-.222995.5-.5-.222995-.5-.5-.5zm0 2c-.277005 0-.5.222995-.5.5s.222995.5.5.5.5-.222995.5-.5-.222995-.5-.5-.5zm2 0c-.277005 0-.5.222995-.5.5s.222995.5.5.5.5-.222995.5-.5-.222995-.5-.5-.5zm-3.916016.416016-2.1230465 2.123046c.90375.903751 2.1540625 1.460938 3.5390625 1.460938v-1.5-1.5c-.554 0-1.054516-.222484-1.416016-.583984zm1.416016 2.083984c0 .277005.222995.5.5.5s.5-.222995.5-.5-.222995-.5-.5-.5-.5.222995-.5.5zm4.5-.5c-.277005 0-.5.222995-.5.5s.222995.5.5.5.5-.222995.5-.5-.222995-.5-.5-.5zm-9 2c-.2770052 0-.5.222995-.5.5s.2229948.5.5.5.5-.222995.5-.5-.2229948-.5-.5-.5zm5 0c-.277005 0-.5.222995-.5.5s.222995.5.5.5.5-.222995.5-.5-.222995-.5-.5-.5zm6 0c-.277005 0-.5.222995-.5.5s.222995.5.5.5.5-.222995.5-.5-.222995-.5-.5-.5zm-13 2c-.2770052 0-.5.222995-.5.5s.2229948.5.5.5.5-.222995.5-.5-.2229948-.5-.5-.5zm7 0c-.277005 0-.5.222995-.5.5s.222995.5.5.5.5-.222995.5-.5-.222995-.5-.5-.5z" fill="#4d4d4d"/></svg>

<svg xmlns="http://www.w3.org/2000/svg" viewBox="0 0 24 24">
  <defs id="defs3051">
    <style type="text/css" id="current-color-scheme">
      .ColorScheme-Text {
        color:#4d4d4d;
      }
      </style>
  </defs>
 <path style="fill:currentColor;fill-opacity:1;stroke:none" 
     d="M 12.5 3 C 12.222995 3 12 3.2229948 12 3.5 C 12 3.7770052 12.222995 4 12.5 4 C 12.777005 4 13 3.7770052 13 3.5 C 13 3.2229948 12.777005 3 12.5 3 z M 5.5 4 C 5.2229948 4 5 4.2229948 5 4.5 C 5 4.7770052 5.2229948 5 5.5 5 C 5.7770052 5 6 4.7770052 6 4.5 C 6 4.2229948 5.7770052 4 5.5 4 z M 19.5 4 C 19.222995 4 19 4.2229948 19 4.5 C 19 4.7770052 19.222995 5 19.5 5 C 19.777005 5 20 4.7770052 20 4.5 C 20 4.2229948 19.777005 4 19.5 4 z M 12.5 5 C 12.222995 5 12 5.2229948 12 5.5 C 12 5.7770052 12.222995 6 12.5 6 C 12.777005 6 13 5.7770052 13 5.5 C 13 5.2229948 12.777005 5 12.5 5 z M 7.5 6 C 7.2229948 6 7 6.2229948 7 6.5 C 7 6.7770052 7.2229948 7 7.5 7 C 7.7770052 7 8 6.7770052 8 6.5 C 8 6.2229948 7.7770052 6 7.5 6 z M 12 6 C 10.098559 6 8.4122069 6.8783098 7.3144531 8.25 L 10.443359 10.753906 C 10.809292 10.297096 11.366524 10 12 10 L 12 9.5 L 12 7.5 L 12 6 z M 12 7.5 C 12 7.7770052 12.222995 8 12.5 8 C 12.777005 8 13 7.7770052 13 7.5 C 13 7.2229948 12.777005 7 12.5 7 C 12.222995 7 12 7.2229948 12 7.5 z M 12 9.5 C 12 9.7770052 12.222995 10 12.5 10 C 12.777005 10 13 9.7770052 13 9.5 C 13 9.2229948 12.777005 9 12.5 9 C 12.222995 9 12 9.2229948 12 9.5 z M 15.708984 6.0644531 L 13.058594 10.306641 C 13.578053 10.631496 13.928885 11.187907 13.982422 11.833984 L 18.970703 11.417969 C 18.785146 9.1521666 17.53104 7.2022357 15.708984 6.0644531 z M 4.5 11 C 4.2229948 11 4 11.222995 4 11.5 C 4 11.777005 4.2229948 12 4.5 12 C 4.7770052 12 5 11.777005 5 11.5 C 5 11.222995 4.7770052 11 4.5 11 z M 6.5 11 C 6.2229948 11 6 11.222995 6 11.5 C 6 11.777005 6.2229948 12 6.5 12 C 6.7770052 12 7 11.777005 7 11.5 C 7 11.222995 6.7770052 11 6.5 11 z M 8.5 11 C 8.2229948 11 8 11.222995 8 11.5 C 8 11.777005 8.2229948 12 8.5 12 C 8.7770052 12 9 11.777005 9 11.5 C 9 11.222995 8.7770052 11 8.5 11 z M 10.5 11 C 10.222995 11 10 11.222995 10 11.5 C 10 11.777005 10.222995 12 10.5 12 C 10.777005 12 11 11.777005 11 11.5 C 11 11.222995 10.777005 11 10.5 11 z M 12.5 11 C 12.222995 11 12 11.222995 12 11.5 C 12 11.777005 12.222995 12 12.5 12 C 12.777005 12 13 11.777005 13 11.5 C 13 11.222995 12.777005 11 12.5 11 z M 12.5 13 C 12.222995 13 12 13.222995 12 13.5 C 12 13.777005 12.222995 14 12.5 14 C 12.777005 14 13 13.777005 13 13.5 C 13 13.222995 12.777005 13 12.5 13 z M 14.5 13 C 14.222995 13 14 13.222995 14 13.5 C 14 13.777005 14.222995 14 14.5 14 C 14.777005 14 15 13.777005 15 13.5 C 15 13.222995 14.777005 13 14.5 13 z M 10.583984 13.416016 L 8.4609375 15.539062 C 9.3646875 16.442813 10.615 17 12 17 L 12 15.5 L 12 14 C 11.446 14 10.945484 13.777516 10.583984 13.416016 z M 12 15.5 C 12 15.777005 12.222995 16 12.5 16 C 12.777005 16 13 15.777005 13 15.5 C 13 15.222995 12.777005 15 12.5 15 C 12.222995 15 12 15.222995 12 15.5 z M 16.5 15 C 16.222995 15 16 15.222995 16 15.5 C 16 15.777005 16.222995 16 16.5 16 C 16.777005 16 17 15.777005 17 15.5 C 17 15.222995 16.777005 15 16.5 15 z M 7.5 17 C 7.2229948 17 7 17.222995 7 17.5 C 7 17.777005 7.2229948 18 7.5 18 C 7.7770052 18 8 17.777005 8 17.5 C 8 17.222995 7.7770052 17 7.5 17 z M 12.5 17 C 12.222995 17 12 17.222995 12 17.5 C 12 17.777005 12.222995 18 12.5 18 C 12.777005 18 13 17.777005 13 17.5 C 13 17.222995 12.777005 17 12.5 17 z M 18.5 17 C 18.222995 17 18 17.222995 18 17.5 C 18 17.777005 18.222995 18 18.5 18 C 18.777005 18 19 17.777005 19 17.5 C 19 17.222995 18.777005 17 18.5 17 z M 5.5 19 C 5.2229948 19 5 19.222995 5 19.5 C 5 19.777005 5.2229948 20 5.5 20 C 5.7770052 20 6 19.777005 6 19.5 C 6 19.222995 5.7770052 19 5.5 19 z M 12.5 19 C 12.222995 19 12 19.222995 12 19.5 C 12 19.777005 12.222995 20 12.5 20 C 12.777005 20 13 19.777005 13 19.5 C 13 19.222995 12.777005 19 12.5 19 z "
     class="ColorScheme-Text"
     />
</svg>
